packages/kaspersky-hexa-ui-icons/src/iconsSVGs/48/Computer.svg

<svg xmlns="http://www.w3.org/2000/svg" width="48" height="48" fill="none" viewBox="0 0 48 48"><path fill="currentColor" fill-rule="evenodd" d="M48 38V0H0v38h16v8h-4v2h24v-2h-4v-8zM46 2v27H2V2zM2 36v-5h44v5zm28 10H18v-8h12z" clip-rule="evenodd"/></svg>

<svg width="48" height="48" viewBox="0 0 48 48" fill="none" xmlns="http://www.w3.org/2000/svg">
<path fill-rule="evenodd" clip-rule="evenodd" d="M48 38V0H0V38H16V46H12V48H36V46H32V38H48ZM46 2V29H2V2H46ZM2 36V31H46V36H2ZM30 46H18V38H30V46Z"  fill="currentColor"/>
</svg>
